X:1
T:Canzon prima "La Spiritata"
T:Canzon prima "La Spiritata"
T:Giovanni Gabrielli (1557-1613)
C:Giovanni Gabrielli (1557-1613)
%%score 1 2 3 4
L:1/8
M:2/2
K:Bb
V:1 treble 
V:2 treble 
V:3 alto 
V:4 bass 
V:1
 z8 d2 G2 d2 e2 | f6 f2 edcB A2 a2 | g2 f2 e4 d8 | z8 z8 | z8 z8 | z8 z8 | d2 G2 d2 e2 f6 f2 | %7
 edcB A2 a2 g2 f2 e4 | d8- d8 | z8 z8 | d2 G2 d2 e2 f6 f2 | edcB A2 a2 g2 f2 e4 | d6 d2 c2 B2 A4 | %13
 G8- G8 ||[M:3/2] B3 c d2 B2 G2 B2 | A3 B c2 d4 ^c2 | d12 | z12 | z12 | z12 | B3 c d2 B2 G2 B2 | %21
 A3 B c2 d4 ^c2 |[M:2/2] d2 A2 Bcdf e2 d2 c2 B2 | A2 c2 B2 A2 G4 z4 | z4 z2 A2 Bcdf e2 d2 | %25
 c2 B2 A4 G4 z4 | z2 c2 defa g2 f2 e2 d2- | d2 ^c2 d3 A B=cdf _e2 d2 | c2 B2 A2 G2 ^F2 G4 f2 |: %29
 GGBc d4- d2 B2 c4- | c2 B2 B2 AG A2 B4 A2 | B4 d4 dd d4- x2 | d2 d2 d2 f2 _e2 d2 c2 B2 | %33
 A2 d2 A2 B2 ^F6 d2 | A2 B2 ^F2 G2 A2 B2 c2 d2 | %35
V:2
 G2 D2 G2 A2 B6 B2 | AGFE D2 d2 cBAG F4 | Bc d4 ^c2 d8 | z8 z8 | G2 D2 G2 A2 B6 B2 | %5
 AGFE D2 d2 c2 B2 A4 | B6 AG AGFE D2 d2 | cBAG F2 A2 =B^c d4 c2 | d8 z8 | z8 G2 D2 G2 A2 | %10
 B6 B2 AGFE D2 d2 | cBAG F2 A2 =B^c d4 c2 | d6 B2 A2 G4 ^F2 | G8- G8 ||[M:3/2] G8 G4 | F6 D2 E4 | %16
 D12 | z12 | F3 G A2 F2 D2 F2 | E3 D E2 G4 ^F2 | G3 A B2 G2 D2 E2 | F3 G A2 A2 A4 | %22
[M:2/2] F4 z2 D2 EFGB A2 G2 | F2 E2 D4 z2 D2 EFGB | A2 G4 ^F2 G2 D2 E=FGB | A2 G4 ^F2 G2 D2 E=FGB | %26
 A2 G4 FF BcdA c2 G2 | A3 E FGAc B2 A2 G2 B2 | A2 G2 _E2 D2 D8 |: DGGA B4- B2 G2 AGFE | %30
 DE F4 E2 F8 | D4 B4 BB B4- x2 | B2 B2 B2 d2 c2 B2 A2 G2 | ^F6 G2 A4 D4 | D8 E6 A2 | %35
V:3
 z8 z8 | z8 z8 | z8 D2 G,2 D2 E2 | F6 F2 EDCB, A,2 D2 | ^C2 D4 C2 D6 B,2 | C4 B,2 D2 E^F G4 F2 | %6
 G6 =FE D8 | z4 z2 F2 GA _B2 G2 A2 | D8 D2 G,2 D2 E2 | F6 F2 E6 DC | D8 D8 | %11
 z4 z2 F2 GA _B2 G2 A2 | D6 F2 _E2 E4 D2 | =B,8- B,8 ||[M:3/2] z12 | z12 | B,3 C D2 B,2 G,2 B,2 | %17
 A,3 B, C2 D4 ^C2 | D12 | C6 B,2 A,4 | D8 B,4 | C6 F2 E4 |[M:2/2] D4 z4 z8 | %23
 z2 A,2 B,CDF E2 D2 C2 B,2 | C3 G, B,2 A,2 G,A,B,D C2 B,2 | C4 D2 D2 G,A,B,D C2 B,2 | %26
 C3 G, B,2 A,D G,2 z D EFGD | F2 E2 D4 z2 A,2 B,CDF | _E2 D2 C2 B,2 A,2 G,2 A,4 |: %29
 G,4 z G,B,C D4 C4 | D6 CB, C2 D2 C4 | B,8 F4 F2 F2 | F8 z8 | z8 z2 D2 A,2 B,2 | %34
 ^F,2 G,2 A,2 B,2 C2 D2 E2 =F2 | %35
V:4
 z8 z8 | z8 z8 | G,2 D,2 G,2 A,2 B,6 B,2 | A,G,F,E, D,2 D2 CB,A,G, F,2 E,D, | %4
 E,2 F,2 E,4 D,C,B,,A,, G,,2 G,2 | F,4 G,2 B,2 CD _E2 C2 D2 | G,8 z8 | z8 z8 | %8
 G,2 D,2 G,2 A,2 B,6 B,2 | A,G,F,E, D,2 D2 C6 B,A, | G,8 z8 | z8 z8 | %12
 z4 z2 B,,2 C,D, _E,2 C,2 D,2 | G,,8- G,,8 ||[M:3/2] z12 | z12 | G,,8 G,,4 | F,6 D,2 E,4 | D,12 | %19
 z12 | G,8 G,4 | F,6 D,2 A,4 |[M:2/2] D,8 z8 | z4 z2 D,2 E,F,G,B, A,2 G,2 | F,2 E,2 D,4 G,4 z4 | %25
 z4 z2 D,2 E,F,G,B, A,2 G,2 | F,2 E,2 D,2 D,2 G,A,B,D C2 B,2 | A,4 D,2 ^F,2 G,2 =F,2 G,4 | %28
 C,8 D,8 |: G,4 z G,G,A, B,4 A,4 | B,4 G,4 F,8 | B,,8 B,4 B,2 B,2 | B,6 B,2 C4 C4 | D8 D,8 | %34
 D,8 A,8 | %35

